X: 17
T:Anderson's
M:6/8
L:1/8
Q:1/4=120
K:C % 0 sharps
B||:c2 e dcB|cGE CEG|AGF GFE|DEF GAB|cde dcB|!
cGE CEG|A

